X:384
T: WI I BIN VERWICHA
N: B0458
O: Europa, Mitteleuropa, Deutschland; Oesterreich
R: Liebes - Lied, Leid, Klage
M: 3/4
L: 1/8
K: D
Ad | dccEGB | BAAA,
DF | FEFEFE | D2z2
Ad | dccEGB | BAAA,
DF | FEFEFE | D2z2
FB | B^AA2Fc | cBB2
FB | dcdcdc | B3_B
Ad | dccEGB | BAA2
DF | FEFEFE | D2z2

